!!!SOCIAL_FUNCTION:	war songs
!!!PDT:	1922
!!!OTL: No_80_Scalp_Dance_Song_(c).krn
!!!REG: Southwest
!!!LANG: Non-Tone
!!!LING_GROUP: Uto-Aztecan
**kern
*staff1
=1-
*clefF4
*k[b-e-a-]
*M4/8
4e-\
(32e-\LLK
16.B-\JJ)
8r
=2||
*M3/8
8.f\L
16e-\L
32e-\K
16.B-\JJ
=3||
*M5/8
16e-\LL
16B-\
16B-\
16G\J
8G\
8G\
8G\J
=4||
*M3/8
8.e-\L
16e-\L
32B-\K
16.G\JJ
=5||
*M5/8
16B-\LL
16B-\
16B-\
16G\J
8G\
8G\
8G\J
=6||
*M4/8
8.B-\L
16A-\Jk
8.B-\L
16A-\Jk
=7
8G\
8B-\
8G\
8E-\
=8
8G\
8G\
8G\
8G\
=9||
*M2/8
8G\L
8E-\J
=10||
*M4/8
8G\
8G\
8G\
8G\
=11
4G\
4G\
=12
2G\
==
*-
